X:708
T: ALLES IST VERGAENGLICH
N: E2149
O: Europa, Mitteleuropa, Deutschland, Altmark
R: geistlich, Moral - Lied, Vergaenglichkeit
M: 4/4
L: 1/8
K: F
 | F3GA2A2 | A3GF2z2
G2G2E2EG | F4z2
A2 | G2B2E2E2 | F4A2
A2 | G2G2E2C2 | F4A2z2
AGG2E2E2 | F6z2

